svgs/light/message-dots.svg

<svg xmlns="http://www.w3.org/2000/svg" viewBox="0 0 512 512"><!-- Font Awesome Pro 6.0.0-alpha2 by @fontawesome - https://fontawesome.com License - https://fontawesome.com/license (Commercial License) --><path d="M448 0H64C28.75 0 0 28.75 0 64V352.002C0 387.252 28.75 416.002 64 416.002H160V500.002C160 509.84 171.025 515.479 179.125 509.627L304 416.002H448C483.25 416.002 512 387.252 512 352.002V64C512 28.75 483.25 0 448 0ZM480 352.002C480 369.602 465.6 384.002 448 384.002H303.924C296.996 384.002 290.254 386.25 284.713 390.408L192 460.002V400.002C192 391.164 184.836 384.002 176 384.002H64C46.4 384.002 32 369.602 32 352.002V64C32 46.4 46.4 32 64 32H448C465.6 32 480 46.4 480 64V352.002ZM128 184C114.746 184 104 194.744 104 208C104 221.254 114.746 232 128 232S152 221.254 152 208C152 194.744 141.254 184 128 184ZM384 184C370.746 184 360 194.744 360 208C360 221.254 370.746 232 384 232S408 221.254 408 208C408 194.744 397.254 184 384 184ZM256 184C242.746 184 232 194.744 232 208C232 221.254 242.746 232 256 232S280 221.254 280 208C280 194.744 269.254 184 256 184Z"/></svg>

<svg xmlns="http://www.w3.org/2000/svg" viewBox="0 0 512 512"><!--! Font Awesome Pro 6.3.0 by @fontawesome - https://fontawesome.com License - https://fontawesome.com/license (Commercial License) Copyright 2023 Fonticons, Inc. --><path d="M447.1 0h-384c-35.25 0-64 28.75-64 63.1v287.1c0 35.25 28.75 63.1 64 63.1h96v83.1c0 9.838 11.03 15.55 19.12 9.7l124.9-93.7h144c35.25 0 64-28.75 64-63.1V63.1C511.1 28.75 483.2 0 447.1 0zM480 352c0 17.6-14.4 32-32 32h-144.1c-6.928 0-13.67 2.248-19.21 6.406L192 460v-60c0-8.838-7.164-16-16-16H64c-17.6 0-32-14.4-32-32V64c0-17.6 14.4-32 32-32h384c17.6 0 32 14.4 32 32V352zM128 184c-13.25 0-24 10.74-24 24c0 13.25 10.75 24 24 24S152 221.3 152 208C152 194.7 141.3 184 128 184zM384 184c-13.25 0-24 10.74-24 24c0 13.25 10.75 24 24 24s24-10.75 24-24C408 194.7 397.3 184 384 184zM256 184c-13.25 0-24 10.74-24 24c0 13.25 10.75 24 24 24s24-10.75 24-24C280 194.7 269.3 184 256 184z"/></svg>
